!!!COM: Scarlatti, Domenico
!!!CDT: 1685///-1757///
!!!OTL: Sonata in C Major, K.384, L.2
!!!SCT: K. 384
!!!SCT: L. 2
!!!OMD: Andante cantabile ([quarter]=104)
**kern	**kern	**dynam
*staff2	*staff1	*staff1/2
*Icemba	*Icemba	*Icemba
*I"2.	*I"2.	*I"2.
*>[A,A,B,B]	*>[A,A,B,B]	*>[A,A,B,B]
*>norep[A,B]	*>norep[A,B]	*>norep[A,B]
*>A	*>A	*>A
*clefF4	*clefG2	*clefG2
*k[]	*k[]	*k[]
*C:	*C:	*C:
*met(c)	*met(c)	*met(c)
*M4/4	*M4/4	*M4/4
*MM104	*MM104	*MM104
=1-	=1-	=1-
!	!LO:TUP:b	!
4r	(12eL	p
.	12g	.
.	12ccJ	.
*clefG2	*	*
4cc	12eeL	.
.	12ff	.
.	12ggJ	.
(4cc	4ee	>
4g)	4dd)	]]
=2	=2	=2
*	*Xtuplet	*
4r	(12eL	.
.	12g	.
.	12ccJ	.
4cc	12eeL	.
.	12ff	.
.	12ggJ	.
(4cc	4ee	>
4g)	4dd)	]]
=3	=3	=3
4r	(12eeL	.
.	12dd	.
.	12ccJ)	.
(4e	(4cc	.
4f	12ddL	.
.	12cc	.
.	12bJ)	.
4g)	(4b	.
*clefF4	*	*
=4	=4	=4
*^	*	*
!LO:TUP:b	!	!	!LO:DY:rj
(12EL	4r	2cc)	mf
12G	.	.	.
12cJ	.	.	.
!LO:TUP:b	!	!	!
12eL	4c	.	.
12f	.	.	.
12gJ	.	.	.
4e	(4c	4r	.
!	!	!	!LO:DY:rj
4d)	4G)	4gg	p
!!LO:LB:g=z
=5	=5	=5	=5
*Xtuplet	*	*	*
(12EL	4r	2ggM	.
12G	.	.	.
12cJ	.	.	.
12eL	4c	.	.
12f	.	.	.
12gJ	.	.	.
4e	(4c	4r	.
4d)	4G)	(4gg	.
=6	=6	=6	=6
4r	4E 4c	12cccL	mf
.	.	12gg	.
.	.	12eeJ	.
(4e	(4E [4c	12ccL	.
.	.	12dd	.
.	.	12eeJ	.
.	.	(16qqdd	.
2d	4F 4c]	2ddT)	.
.	4G 4B	.	.
.	.	32qccL	.
.	.	32qddJ	.
*v	*v	*	*
=7	=7	=7
4C 4c))	4cc)	.
(4c 4e	(12ggL	p
.	12ee	.
.	[<12gJ	.
4c 4f)	4g]	.
.	(16qqa	.
(4c 4f	4aT)	.
.	32qgLLL	.
.	32qaJJJ	.
=8	=8	=8
4c 4e)	4g)	.
((4c 4e	(>12eeL>	.
.	12cc	.
.	[12eJ	.
4G 4c 4d))	4e]	.
.	(16qqf	.
((4G 4d	4fT)	.
.	32qeLLL	.
.	32qfJJJ	.
=9	=9	=9
4c))	4e)	.
(4c 4e	(12ggL	pp
.	12ee	.
.	[12gJ	.
4c 4f)	4g]	.
.	(16qqa	.
(4c 4f	4aT)	.
.	32qgLLL	.
.	32qaJJJ	.
!!LO:LB:g=z
=10	=10	=10
4c 4e)	4g)	.
((4c 4e	(12eeL	.
.	12cc	.
.	[12eJ	.
4G 4c 4d))	4e]	.
.	(16qqf	.
((4G 4d	4fT)	.
=11	=11	=11
4c))	4e)	.
.	(8qdd	.
!	!	!LO:DY:rj
(<4c 4g	(32ccLLL)	mf
.	32b	.
.	32cc	.
.	32ddJJ	.
.	8eeJ)	.
4B) 4g	(12ddL	.
.	12aa	.
.	12ggJ)	.
(<4B 4g	4ggM	.
=12	=12	=12
4A) 4g	4r	.
.	(8qb	.
4A ((4c	(32a)LLL<	.
.	32g	.
.	32a	.
.	32bJJ	.
.	8ccJ)	.
4G 4d))	(12bL	.
.	12aa	.
.	12ggJ)	.
4G ((4d	4ggM	.
=13	=13	=13
4c 4e))	4r	.
.	(8qdd	.
!	!	!LO:DY:rj
(<4c 4g	(32cc)LLL	p
.	32b	.
.	32cc	.
.	32ddJJ	.
.	8eeJ)	.
4B) 4g	(12ddL	.
.	12aa	.
.	12ggJ)	.
(<4B 4g	4ggM	.
!!LO:LB:g=z
=14	=14	=14
4A) 4g	4r	.
.	(8qb	.
!	!	!LO:DY:rj
4A ((4c	(32a)LLL<	pp
.	32g	.
.	32a	.
.	32bJJ	.
.	8ccJ)	.
!	!LO:TX:c:i:t=poco rit.	!
4G 4d))	(12bL	.
.	12aa	.
.	12ggJ)	.
4G 4d	4ggM	.
=15	=15	=15
!	!LO:TX:a:i:t=a tempo	!
4r	12dL	p
.	12d	.
.	12dJ	.
(<4F# 4c	12dL	.
.	12d	.
.	12dJ	.
!	!	!LO:HP:b=2
(4G) 4c	12dL	>
.	12d	.
.	12dJ	.
4G 4B)	12dL	]
.	12d	.
.	12dJ	.
=16	=16	=16
4r	12dL	.
.	12d	.
.	12dJ	.
(<4F# 4c	12dL	.
.	12d	.
.	12dJ	.
!	!	!LO:HP:b=2
(4G 4c)	12dL	>
.	12d	.
.	12dJ	.
4G 4B)	12dL	]
.	12d	.
.	(>12dJ	.
!!LO:LB:g=z
=17	=17	=17
4C	12eL	<
.	12f#	.
.	12gJ	.
(4c 4e	12aL	.
.	12b	.
.	12ccJ	.
4c 4d)	12ddL	.
.	12ee	.
.	12ff#J	.
(<(4B 4d	12ggL	.
.	12aa	.
.	12bbJ	.
=18	=18	=18
4A 4c)	12cccL	mf >
.	12cc)	.
.	12ccJ	.
4G 4c	12ccL	]
.	12cc	.
.	12ccJ	.
4F# 4c	12ccL	.
.	12cc	.
.	12ccJ	.
4E (4G	12ccL	<
.	(12cc	.
.	12cc#J	[[
=19	=19	=19
*^	*^	*
!	!	!	!	!LO:DY:rj
2A	4D	4dd	12ddL)	mf
.	.	.	12d	.
.	.	.	12dJ	.
.	4C	2dd	12dL	.
.	.	.	12d	.
.	.	.	12dJ	.
4G	4BB	.	12dL	.
.	.	.	12d	.
.	.	.	12dJ	.
4F#	4AA	4cc	(12dL	.
.	.	.	12e	.
.	.	.	12f#J)	.
*v	*v	*	*	*
*	*v	*v	*
!!LO:LB:g=z
=20	=20	=20
.	(8ccq	.
4GG\ 4G\))	()32bLLL	.
.	32a	.
.	32b	.
.	32ccJJ	.
.	8ddJ)	.
.	(8ff#q	.
4C ((4c	(32eeLLL)	.
.	32dd	.
.	32ee	.
.	32ff#JJ	.
.	[8ggJ)	.
4D 4B))	(12ggL]	.
.	12b	.
.	[12ddJ	.
4D ((4A	12ddL]	>
.	12a	.
.	12f#J)	]]
=21	=21	=21
.	(8aq	.
4GG\ 4G\))	(32gLLL)	p
.	32f#	.
.	32g	.
.	32aJJ	.
.	8bJ)	.
.	(8ccq	.
4r	(32bLLL)	.
.	32a	.
.	32b	.
.	32ccJJ	.
.	8ddJ)	.
(32GLLL	[2gg	.
32F#	.	.
32G	.	.
32AJJ	.	.
8BJ)	.	.
(32BLLL	.	.
32A	.	.
32B	.	.
32cJJ	.	.
8dJ)	.	.
=22	=22	=22
4CC 4C	(12ggL]	.
.	(<12ee	.
.	[12ccJ	.
(4CC 4C	12ccL]	.
.	12e	.
.	12ccJ	.
4DD) 4D	4g)	.
.	(>16qqa	.
(4DD 4D	4f# 4aT)	.
!!LO:LB:g=z
=23	=23	=23
.	(8aq	.
4GG) 4G	(32gLLL)	mf
.	32f#	.
.	32g	.
.	32aJJ	.
.	8bJ)	.
.	(8ccq	.
4r	(32bLLL)	.
.	32a	.
.	32b	.
.	32ccJJ	.
.	8ddJ)	.
(32GLLL	[2gg	.
32F#	.	.
32G	.	.
32AJJ	.	.
8BJ)	.	.
(32BLLL	.	.
32A	.	.
32B	.	.
32cJJ	.	.
8dJ)	.	.
=24	=24	=24
4CC 4C	(12ggL]	.
.	12a	.
.	[12eeJ	.
(4CC 4C	12eeL]	.
.	12e	.
.	12ccJ	.
4DD 4D)	4g)	.
(4DD 4D	4f# ((4aT	.
.	32qqgLLL	.
.	32qqaJJJ	.
=25	=25	=25
1GG 1G)	1g))	.
=26:|!|:	=26:|!|:	=26:|!|:
*>B	*>B	*>B
4GG	4r	p
*	*tuplet	*
4g	(12ddL	.
.	12b-	.
.	12ee-J)	.
*	*Xtuplet	*
.	(16qqdd^	.
(4g	2cc)	.
4f#	.	.
!!LO:LB:g=z
=27	=27	=27
4g)	4r	.
4g	(12ddL	.
.	12b-	.
.	12ee-J)	.
.	(16qqdd^	.
(4g	2cc)	.
4f#	.	.
=28	=28	=28
4g)	4r	.
4e-	(12ee-L	mf
.	12b-	.
.	12ggJ)	.
.	(<16qqgg^	.
(<4e- 4f	2a- 2ff)	.
(4d 4f	.	.
=29	=29	=29
4e- 4g)	4r	.
4e- 4g)	(12ee-L	.
.	12b-	.
.	12ggJ)	.
.	(16qqgg^	.
(<4e- 4f	2a- 2ff)	.
[4d 4f	.	.
=30	=30	=30
*^	*	*
.	.	(<16qqgg^	.
2f	4d]	2a- 2ff)	.
.	2c	.	.
.	.	(<16qqgg^	.
4f	.	2g 2ff)	.
4f	4Bn	.	.
*v	*v	*	*
=31	=31	=31
.	(16qqff	.
4c)	4ee-)	.
(<4F 4f	(12ddL	.
.	12ff	.
.	12ccJ	.
4G 4f	4b	.
.	(16qqcc	.
4A- 4f	4ccT)	.
.	32qbLLL	.
.	32qccJJJ	.
!!LO:LB:g=z
=32	=32	=32
4G 4f)	12ddL	>
.	12g	.
.	12gJ)	] p
4B 4f	12gL	.
.	12g	.
.	12gJ	.
!	!	!LO:HP:b=2
4c (4f	12gL	>
.	12g	.
.	12gJ	.
4c 4e)	12gL	]
.	12g	.
.	12gJ	.
=33	=33	=33
4r	12gL	.
.	12g	.
.	12gJ	.
(4B 4f	12gL	.
.	12g	.
.	12gJ	.
*	*	*^
!	!	!LO:HP:b=2	!
4c) 4f	12gL	>	.
.	12g	.	.
.	12gJ	.	.
4c 4e	12gL	]	<
.	(12g	.	.
.	12g#J)	.	[[
*	*	*v	*v
=34	=34	=34
.	(8bq	.
2F 2f	(32aLLL)	.
.	32g#i	.
.	32a	.
.	32bJJ	.
.	8ccJ)	.
.	(8eeq	.
.	(32ddLLL)	.
.	32cc#i	.
.	32dd	.
.	32eeJJ	.
.	8ffJ)	.
*clefG2	*	*
(32fLLL	[2aa	.
32e	.	.
32f	.	.
32gJJ	.	.
8aJ)	.	.
(32aLLL	.	.
32g	.	.
32a	.	.
32bJJ	.	.
8ccJ)	.	.
*clefF4	*	*
!!LO:LB:g=z
=35	=35	=35
(4BBB 4BB	12aaL]	.
.	(12gg	.
.	[12ddJ	.
4CC 4C)	12ddL]	.
.	12ee	.
.	[12gJ	.
(4FF 4F	12gL<]	.
.	12a	.
.	12ddJ	.
4GG) 4G	4b)m	.
=36	=36	=36
.	(8ddq	.
!	!	!LO:DY:rj
2CC 2C	(32ccLLL)	mf
.	32b	.
.	32cc	.
.	32ddJJ	.
.	8eeJ)	.
.	(8ffq	.
.	(32eeLLL)	.
.	32dd	.
.	32ee	.
.	32ffJJ	.
.	8ggJ)	.
(32cLLL	2cc [2ccc	.
32B	.	.
32c	.	.
32dJJ	.	.
8eJ)	.	.
(32eLLL	.	.
32d	.	.
32e	.	.
32fJJ	.	.
8gJ)	.	.
=37	=37	=37
4FF 4F	12cccL]	.
.	(12aa	.
.	[12ffJ	.
(4FF 4F	12ffL]	.
.	12dd	.
.	12ccJ)	.
4GG) 4G	4cc	.
.	(<32qqdd	.
(4GG 4G	4b 4ddT)	.
!!LO:LB:g=z
=38	=38	=38
.	(8ddq	.
2CC 2C)	()32ccLLL	p
.	32b	.
.	32cc	.
.	32ddJJ	.
.	8eeJ)	.
.	(8ffq	.
.	()32eeLLL	.
.	32dd	.
.	32ee	.
.	32ffJJ	.
.	8ggJ)	.
(32cLLL	2cc [2ccc	.
32B	.	.
32c	.	.
32dJJ	.	.
8eJ)	.	.
(32eLLL	.	.
32d	.	.
32e	.	.
32fJJ	.	.
8gJ)	.	.
=39	=39	=39
4FF 4F	(12cccL]	.
.	12dd	.
.	[12aaJ	.
(4FF 4F	12aaL]	.
.	12ccc	.
.	12ccJ)	.
4GG 4G)	(4cc	.
(4GG 4G	4b 4ddT	.
.	32qccLLL	.
.	32qddJJJ	.
=40	=40	=40
4CC 4C)	12ccL)	mf
.	(12gg	.
.	12ffJ	.
(4FF	12aL	.
.	12dd	.
.	12ccJ)	.
4GG)	4c 4e	.
(4GG	4B (>4dT	.
.	32qcLLL	.
.	32qdJJJ	.
=41	=41	=41
1CC)	1c)	.
==:|!	==:|!	==:|!
*-	*-	*-
!!!RDF**kern: > = above
!!!RDF**kern: < = below
!!!RDF**kern: i = editorial accidental
!!!PTL: Domenico Scarlatti: Opere complete per clavicembalo, vol. 1
!!!PED: Longo, Alessandro
!!!PPR: Ricordi
!!!PPP: Milan
!!!PDT: 1906-1913
!!!ENC: Craig Stuart Sapp
!!!END: 2008/01/22
!!!EED: Craig Stuart Sapp
!!!EEV: 2020/12/18
